X: 193
T: Rathsallagh Hornpipe
N: 180399
C: BB
N: revised 1/07
M: C|
Q: 1/8=330
L: 1/8
R: hornpipe
K: D
D|"D"FGAB AFDF|"D"Addc "Bm"B2 Bc|"D"defd "Em"efdB|"D"Addc "Bm7"BAFE|
"D"FGAB AFDF|"A"Aece "Bm"d2 de|"D"fagf "Em7"edBG|"A"Adce "D"d3 :|
d/e/|"D"fedf "A"edce|"D"dcAF A2 AB|"C"=cGEG cedc|"A"AFEF "D"D2 de|
"D"fedf "A"edce|"D"defg a4|"G"bg"D"af "Em7"(3efg dB|"A"AFEF "D"D3 :|
%%%%%%%%%%%%%%%%%%%%%%%%%%%%%%%%%%%%%%%%%%%
